X: 4254
M: 6/8
L: 1/8
K: D
|:\
cBc ABc | dcd B3  | cBc f2f | cAF F3 ::\
f2d dcB | ABG FGA | B2B cBc |[1 d3 A2A :|[2 dcB ABG |]


